X:57
T:Dan Sweeney's* 1 (polka) 
B:CRE2.125 (gan ainm)
F:file ID: cre.2/057dan_s_1
L:1/8
M:2/4
R:polka
Q:120
K:A
A/B/A/F/ EF|AB ce|fe cA/c/|BA F2|
A/B/A/F/ EF|AB ce|fe cA/c/|BA A2:|
ef/e/ ce|fe e2|aa/f/ ec|BA F2|
A/B/A/F/ EF|AB ce|fe cA/c/|BA A2:|

%%%

